!!!COM: Bach, Johann Sebastian
!!!OPR: Joh. Seb. Bachs vierstimmige Choralgesänge
!!!XEN: Four-part Chorales
!!!OTL: 9. Allein zu dir, Herr Jesu Christ
!!!SCT: BWV 261
!!!SCA: Thematisch-systematisches Verzeichnis der musikalischen Werke Johann Sebastian Bach: Bach-Werke-Verzeichnis (Schmieder)
!!!YOR: Bach Gesellschaft Edition xxxix
!!!ENC: Steven Rasmussen
!!!CDT: 1685/3//-1750/7/28/
!!!OCY: Deutschland
!!!YEC: Copyright (c) 1994, 2000 Center for Computer Assisted Research in the Humanities
!!!YEM: Rights to all derivative editions reserved
!!!YEN: United States of America
**kern	**silbe	**kern	**silbe	**kern	**silbe	**kern	**silbe
*I:[SOPRANO]	*I:[SOPRANO]	*I:[ALTO]	*I:[ALTO]	*I:[TENORE]	*I:[TENORE]	*I:[BASSO]	*I:[BASSO]
*>[A,A,B]	*	*>[A,A,B]	*	*>[A,A,B]	*	*>[A,A,B]	*
*>A	*	*>A	*	*>A	*	*>A	*
*clefG2	*	*clefG2	*	*clefGv2	*	*clefF4	*
*k[f#c#]	*	*k[f#c#]	*	*k[f#c#]	*	*k[f#c#]	*
*b:	*	*b:	*	*b:	*	*b:	*
*M4/4	*	*M4/4	*	*M4/4	*	*M4/4	*
4dd	Al-ich	8f#L	.	4A	.	8DL	.
.	.	8gJ	.	.	.	8EJ	.
=1	=1	=1	=1	=1	=1	=1	=1
4a	-leinweiss,	4a	.	4d	.	4F#	.
8bL	zudass	4g	.	4d	.	4G	.
8cc#J	.	.	.	.	.	.	.
8ddL	dir,du	4a	.	4d	.	4.F#	.
8eeJ	.	.	.	.	.	.	.
4ff#	Herrmein	8a#L	.	4d	.	.	.
.	.	8bJ	.	.	.	8G#	.
=2	=2	=2	=2	=2	=2	=2	=2
4ee	Je-TrÃ¶-	4cc#	.	4c#	.	4A#	.
2dd	.	4f#	.	8dL	.	8BL	.
.	.	.	.	8c#J	.	8AnJ	.
.	.	4e	.	4B	.	4G#	.
4cc#	-su-ster	4e	.	4A	.	4A	.
=3	=3	=3	=3	=3	=3	=3	=3
2dd;	Christ,bist,	2f#;	.	2A;	.	2D;	.
4r	.	4r	.	4r	.	4r	.
4ff#	mein'kein	4a	.	4d	.	4d	.
=4	=4	=4	=4	=4	=4	=4	=4
4ee	Hoff-Trost	8aL	.	4c#	.	4A	.
.	.	8gJ	.	.	.	.	.
4dd	-nungmag	4f#	.	4d	.	4B	.
8cc#L	stehtmir	4g	.	8eL	.	4E	.
8bJ	.	.	.	8dJ	.	.	.
4a	aufsonst	4f#	.	4c#	.	[4F#	aufsonst
=5	=5	=5	=5	=5	=5	=5	=5
4b	Er-wer-	2.g	.	4d	.	4F#]	.
8cc#L	.	.	.	4e	.	8EL	Er-wer-
8ddJ	.	.	.	.	.	8DJ	.
[2ee	.	.	.	8A#L	.	8C#L	.
.	.	.	.	8BJ	.	8BB	.
.	.	8f#L	.	[4c#	.	8AA#	.
.	.	8g#J	.	.	.	8C#J	.
=6	=6	=6	=6	=6	=6	=6	=6
4ee]	.	4a#	.	4c#]	.	4F#	.
4dd	.	8bL	.	2B	.	8GL	.
.	.	8anJ	.	.	.	8F#J	.
2cc#	.	4g	.	.	.	4E	.
.	.	8f#L	.	4A#	.	4F#	.
.	.	8eJ	.	.	.	.	.
=7	=7	=7	=7	=7	=7	=7	=7
2b;	-den,-den.	2d;	.	2B;	.	2BB;	-den,-den.
4r	.	4r	.	4r	.	4r	.
=:|!	=:|!	=:|!	=:|!	=:|!	=:|!	=:|!	=:|!
*>B	*	*>B	*	*>B	*	*>B	*
4ff#	Von	4b	.	4d	.	4B	.
=8	=8	=8	=8	=8	=8	=8	=8
4gg	An-	4b	.	8dL	.	4E	.
.	.	.	.	8BJ	.	.	.
4ee	-be-	4a	.	4c#	.	4A	.
4ff#	-ginn	4a	.	8c#L	.	4D	.
.	.	.	.	8AJ	.	.	.
4dd	ist	4g	.	4B	.	8GL	.
.	.	.	.	.	.	8F#J	.
=9	=9	=9	=9	=9	=9	=9	=9
4ee	Nichts	4g	.	4B	.	4E	.
4ff#	er-	4f#	.	4c#	.	4AA#	.
4b;	-kor'n,	4f#;	.	4d;	.	4BB;	.
4ff#	auf	4b	.	4f#	.	4d	.
=10	=10	=10	=10	=10	=10	=10	=10
4gg	Er-	4b	.	4e	.	4d	.
4ee	-den	4a	.	4e	.	4c#	.
4ff#	ist	4a	.	4d	.	4c#	.
4dd	kein	8gL	.	8dL	.	8BL	.
.	.	8f#J	.	8c#J	.	8AJ	.
=11	=11	=11	=11	=11	=11	=11	=11
4ee	Mensch	4e	.	4B	.	8GL	.
.	.	.	.	.	.	8F#J	.
4ff#	ge-	4a	.	4B	.	8EL	.
.	.	.	.	.	.	8D#J	.
2ryy	.	2ryy	.	2ryy	.	2ryy	.
=12	=12	=12	=12	=12	=12	=12	=12
2b;	-bor'n,	2g;	.	2B;	.	2E;	.
4r	.	4r	.	4r	.	4r	.
4dd	der	4f#	.	4B	.	4BB	.
=13	=13	=13	=13	=13	=13	=13	=13
4cc#	mir	4e#	.	(8B	.	4C#	.
.	.	.	.	4A)	.	.	.
4b	aus	8f#L	.	.	.	8D#L	.
.	.	8g#J	.	8G#	.	8E#J	.
4a	NÃ¶-	4c#	.	4F#	.	4F#	.
4b	-then	4f#	.	4F#	.	4D#	.
=14	=14	=14	=14	=14	=14	=14	=14
4g	hel-	4f#	.	8GL	.	8EL	.
.	.	.	.	8AJ	.	8F#J	.
4g	-fen	4e	.	8BL	.	8GL	.
.	.	.	.	8c#J	.	8AJ	.
4f#;	kann;	4d#;	.	4d#;	.	4B;	.
4r	.	4r	.	4r	.	4r	.
=15	=15	=15	=15	=15	=15	=15	=15
4r	.	4r	.	4r	.	4r	.
4b	ich	2e	ich	8BL	ich	2G	ich
.	.	.	.	16c#L	.	.	.
.	.	.	.	16dJJ	.	.	.
4a	ruf'	.	.	4c#	ruf'	.	.
[4dd	.	[4a	ruf	8dL	.	8F#L	ruf'
.	.	.	.	8eJ	.	8GJ	.
=16	=16	=16	=16	=16	=16	=16	=16
4dd]	.	4a]	.	4f#	.	4A	.
4cc#	dich	4g	dich	4e	dich	4AA	dich
4dd;	an,	4f#;	an,	4d;	an,	4D;	an,
4r	.	4r	.	4r	.	4r	.
=17	=17	=17	=17	=17	=17	=17	=17
4r	.	4r	.	4r	.	4r	.
4a	zu	4f#	.	4d	.	4D	.
4b	dem	4e	.	4G#	.	4d	.
4cc#	ich	4e	.	4A#	.	4c#	.
=18	=18	=18	=18	=18	=18	=18	=18
8ddL	mein	4d	.	8BL	mein	4.B	mein
8eeJ	.	.	.	8c#J	.	.	.
2ff#	.	8ddL	.	2d	.	.	.
.	.	8cc#J	.	.	.	8A	.
.	.	8bL	.	.	.	8GL	.
.	.	8a#J	.	.	.	8F#J	.
4ee	Ver-	8bL	.	[4c#	Ver-	8GL	Ver-
.	.	8cc#J	.	.	.	8EJ	.
=19	=19	=19	=19	=19	=19	=19	=19
4ee	-trau-	4a#	.	4c#]	.	4F#	-trau-
4dd	.	8bL	.	2B	-trau-	8GL	.
.	.	8anJ	.	.	.	8F#J	.
4cc#	.	4g	.	.	.	4E	.
4cc#	-en	8f#L	.	4A#	-en	4F#	-en
.	.	8eJ	.	.	.	.	.
=20	=20	=20	=20	=20	=20	=20	=20
2b;	han.	2d#;	.	2B;	han.	2BB;	han.
4r	.	4r	.	4r	.	4r	.
==|!	==|!	==|!	==|!	==|!	==|!	==|!	==|!
*-	*-	*-	*-	*-	*-	*-	*-
!!!RWG: Key is interpreted using the Humdrum key tool.
!!!END: 1994/05/03
!!!EMD: Converted from MuseData to Humdrum Dec 19, 2000, by Andreas Kornstaedt using muse2kern.
!!!EED: Craig Stuart Sapp
!!!EEV: 2024/03/31
!!!ONB: Some non-unicode characters
